**harm	**harte	**timestamp	**phrase	**leadinstrument	**kern
*M4/4	*M4/4	*	*	*	*
*A:	*A:	*	*	*	*A:
1r;	N	0	.	r	1r;
=1	=1	=1	=1	=1	=1
*>A_intro	*>A_intro	*>A_intro	*>A_intro	*>A_intro	*>A_intro
1I	A:maj	0.302	newline	r	1A 1cc# 1ee
=2	=2	=2	=2	=2	=2
1Im7	A:7	2.87	.	r	1A 1cc# 1ee 1gg#
=3	=3	=3	=3	=3	=3
1I	A:maj6	5.439	.	r	1A 1cc# 1ee
=4	=4	=4	=4	=4	=4
1I	A:maj	8.007	.	r	1A 1cc# 1ee
=5	=5	=5	=5	=5	=5
1I	A:maj	10.575	newline	r	1A 1cc# 1ee
=6	=6	=6	=6	=6	=6
1Im7	A:7	13.042	.	r	1A 1cc# 1ee 1gg#
=7	=7	=7	=7	=7	=7
1I	A:maj6	15.509	.	r	1A 1cc# 1ee
=8	=8	=8	=8	=8	=8
1I	A:maj	17.976	.	r	1A 1cc# 1ee
=9	=9	=9	=9	=9	=9
*>B_verse	*>B_verse	*>B_verse	*>B_verse	*>B_verse	*>B_verse
1I	A:maj	20.443	newline	voice	1A 1cc# 1ee
=10	=10	=10	=10	=10	=10
1Im7	A:7	22.931	.	voice	1A 1cc# 1ee 1gg#
=11	=11	=11	=11	=11	=11
1I	A:maj6	25.418	.	voice	1A 1cc# 1ee
=12	=12	=12	=12	=12	=12
1IVc	D:maj/5	27.905	.	voice	1d 1f# 1A
=13	=13	=13	=13	=13	=13
1IV	D:maj	30.393	newline	voice	1D 1f# 1a
=14	=14	=14	=14	=14	=14
1I	A:maj	32.875	.	voice	1A 1cc# 1ee
=15	=15	=15	=15	=15	=15
1ii	B:min	35.358	.	voice	1B 1dd 1ff#
=16	=16	=16	=16	=16	=16
2Ic	A:maj/5	37.841	.	voice	2a 2cc# 2E
2V	E:maj	39.082	.	voice	2E 2g# 2b
=17	=17	=17	=17	=17	=17
1I	A:maj	40.324	newline	voice	1A 1cc# 1ee
=18	=18	=18	=18	=18	=18
1Im7	A:7	42.801	.	voice	1A 1cc# 1ee 1gg#
=19	=19	=19	=19	=19	=19
1I	A:maj6	45.278	.	voice	1A 1cc# 1ee
=20	=20	=20	=20	=20	=20
1IVc	D:maj/5	47.755	.	voice	1d 1f# 1A
=21	=21	=21	=21	=21	=21
1IV	D:maj	50.232	newline	voice	1D 1f# 1a
=22	=22	=22	=22	=22	=22
1I	A:maj	52.705	.	voice	1A 1cc# 1ee
=23	=23	=23	=23	=23	=23
1V	E:maj	55.177	.	voice	1E 1g# 1b
=24	=24	=24	=24	=24	=24
2I	A:maj	57.65	.	voice	2A 2cc# 2ee
4Vc	E:maj/5	58.886	.	voice	4e 4g# 4B
4Ib	A:maj/3	59.504	.	voice	4a 4C# 4ee
=25	=25	=25	=25	=25	=25
*>C_trans	*>C_trans	*>C_trans	*>C_trans	*>C_trans	*>C_trans
1IV	D:maj	60.122	newline	voice	1D 1f# 1a
=26	=26	=26	=26	=26	=26
1I	A:maj	62.601	.	voice	1A 1cc# 1ee
=27	=27	=27	=27	=27	=27
1V7	E:7	65.081	.	voice	1E 1g# 1b 1dd
=28	=28	=28	=28	=28	=28
1I	A:maj	67.56	.	voice	1A 1cc# 1ee
=29	=29	=29	=29	=29	=29
1Im7	A:7	70.039	.	voice	1A 1cc# 1ee 1gg#
=30	=30	=30	=30	=30	=30
*>B_verse	*>B_verse	*>B_verse	*>B_verse	*>B_verse	*>B_verse
1I	A:maj	72.518	newline	voice	1A 1cc# 1ee
=31	=31	=31	=31	=31	=31
1Im7	A:7	75.011	.	voice	1A 1cc# 1ee 1gg#
=32	=32	=32	=32	=32	=32
1I	A:maj6	77.504	.	voice	1A 1cc# 1ee
=33	=33	=33	=33	=33	=33
1I	A:maj	79.997	.	voice	1A 1cc# 1ee
=34	=34	=34	=34	=34	=34
1IV	D:maj	82.49	newline	voice	1D 1f# 1a
=35	=35	=35	=35	=35	=35
1I	A:maj	84.977	.	voice	1A 1cc# 1ee
=36	=36	=36	=36	=36	=36
1ii	B:min	87.465	.	voice	1B 1dd 1ff#
=37	=37	=37	=37	=37	=37
1V	E:maj	89.953	.	voice	1E 1g# 1b
=38	=38	=38	=38	=38	=38
1I	A:maj	92.441	newline	voice	1A 1cc# 1ee
=39	=39	=39	=39	=39	=39
1Im7	A:7	94.924	.	voice	1A 1cc# 1ee 1gg#
=40	=40	=40	=40	=40	=40
1I	A:maj6	97.407	.	voice	1A 1cc# 1ee
=41	=41	=41	=41	=41	=41
1IVc	D:maj/5	99.89	.	voice	1d 1f# 1A
=42	=42	=42	=42	=42	=42
1IV	D:maj	102.372	newline	voice	1D 1f# 1a
=43	=43	=43	=43	=43	=43
1I	A:maj	104.849	.	voice	1A 1cc# 1ee
=44	=44	=44	=44	=44	=44
1V	E:maj	107.326	.	voice	1E 1g# 1b
=45	=45	=45	=45	=45	=45
2I	A:maj	109.803	.	voice	2A 2cc# 2ee
4Vc	E:maj/5	111.042	.	voice	4e 4g# 4B
4Ib	A:maj/3	111.661	.	voice	4a 4C# 4ee
=46	=46	=46	=46	=46	=46
*>C_trans	*>C_trans	*>C_trans	*>C_trans	*>C_trans	*>C_trans
1IV	D:maj	112.28	newline	voice	1D 1f# 1a
=47	=47	=47	=47	=47	=47
1I	A:maj	114.765	.	voice	1A 1cc# 1ee
=48	=48	=48	=48	=48	=48
1V7	E:7	117.25	.	voice	1E 1g# 1b 1dd
=49	=49	=49	=49	=49	=49
1I	A:maj	119.735	.	voice	1A 1cc# 1ee
=50	=50	=50	=50	=50	=50
1Im7	A:7	122.22	.	voice	1A 1cc# 1ee 1gg#
=51	=51	=51	=51	=51	=51
*>B2_solo	*>B2_solo	*>B2_solo	*>B2_solo	*>B2_solo	*>B2_solo
1I	A:maj	124.705	newline	guitar	1A 1cc# 1ee
=52	=52	=52	=52	=52	=52
1Im7	A:7	127.194	.	guitar	1A 1cc# 1ee 1gg#
=53	=53	=53	=53	=53	=53
1I	A:maj6	129.683	.	guitar	1A 1cc# 1ee
=54	=54	=54	=54	=54	=54
1IVc	D:maj/5	132.172	.	guitar	1d 1f# 1A
=55	=55	=55	=55	=55	=55
1IV	D:maj	134.661	newline	guitar	1D 1f# 1a
=56	=56	=56	=56	=56	=56
1I	A:maj	137.118	.	guitar	1A 1cc# 1ee
=57	=57	=57	=57	=57	=57
1ii	B:min	139.576	.	guitar	1B 1dd 1ff#
=58	=58	=58	=58	=58	=58
1V	E:maj	142.034	.	guitar	1E 1g# 1b
=59	=59	=59	=59	=59	=59
1I	A:maj	144.491	newline	guitar	1A 1cc# 1ee
=60	=60	=60	=60	=60	=60
1Im7	A:7	146.992	.	guitar	1A 1cc# 1ee 1gg#
=61	=61	=61	=61	=61	=61
1I	A:maj6	149.493	.	guitar	1A 1cc# 1ee
=62	=62	=62	=62	=62	=62
1IVc	D:maj/5	151.993	.	guitar	1d 1f# 1A
=63	=63	=63	=63	=63	=63
1IV	D:maj	154.494	newline	guitar	1D 1f# 1a
=64	=64	=64	=64	=64	=64
1I	A:maj	156.96	.	guitar	1A 1cc# 1ee
=65	=65	=65	=65	=65	=65
1V7	E:7	159.426	.	guitar	1E 1g# 1b 1dd
=66	=66	=66	=66	=66	=66
1I	A:maj	161.891	.	guitar	1A 1cc# 1ee
=67	=67	=67	=67	=67	=67
1I	A:maj	164.357	.	guitar	1A 1cc# 1ee
=68	=68	=68	=68	=68	=68
*>B_verse	*>B_verse	*>B_verse	*>B_verse	*>B_verse	*>B_verse
1I	A:maj	166.823	newline	voice	1A 1cc# 1ee
=69	=69	=69	=69	=69	=69
1Im7	A:7	169.284	.	voice	1A 1cc# 1ee 1gg#
=70	=70	=70	=70	=70	=70
1I	A:maj6	171.744	.	voice	1A 1cc# 1ee
=71	=71	=71	=71	=71	=71
1IVc	D:maj/5	174.205	.	voice	1d 1f# 1A
=72	=72	=72	=72	=72	=72
1IV	D:maj	176.666	newline	voice	1D 1f# 1a
=73	=73	=73	=73	=73	=73
1I	A:maj	179.14	.	voice	1A 1cc# 1ee
=74	=74	=74	=74	=74	=74
1ii	B:min	181.615	.	voice	1B 1dd 1ff#
=75	=75	=75	=75	=75	=75
1V	E:maj	184.09	.	voice	1E 1g# 1b
=76	=76	=76	=76	=76	=76
1I	A:maj	186.564	newline	voice	1A 1cc# 1ee
=77	=77	=77	=77	=77	=77
1Im7	A:7	189.03	.	voice	1A 1cc# 1ee 1gg#
=78	=78	=78	=78	=78	=78
1I	A:maj6	191.495	.	voice	1A 1cc# 1ee
=79	=79	=79	=79	=79	=79
1IVc	D:maj/5	193.961	.	voice	1d 1f# 1A
=80	=80	=80	=80	=80	=80
1IV	D:maj	196.427	newline	voice	1D 1f# 1a
=81	=81	=81	=81	=81	=81
1I	A:maj	198.888	.	voice	1A 1cc# 1ee
=82	=82	=82	=82	=82	=82
1V	E:maj	201.349	.	voice	1E 1g# 1b
=83	=83	=83	=83	=83	=83
2I	A:maj	203.81	.	voice	2A 2cc# 2ee
4Vc	E:maj/5	205.041	.	voice	4e 4g# 4B
4Ib	A:maj/3	205.656	.	voice	4a 4C# 4ee
=84	=84	=84	=84	=84	=84
1IV	D:maj	206.271	newline	voice	1D 1f# 1a
=85	=85	=85	=85	=85	=85
1I	A:maj	208.743	.	voice	1A 1cc# 1ee
=86	=86	=86	=86	=86	=86
1V	E:maj	211.215	.	voice	1E 1g# 1b
=87	=87	=87	=87	=87	=87
2I	A:maj	213.687	.	voice	2A 2cc# 2ee
4Vc	E:maj/5	214.923	.	voice	4e 4g# 4B
4Ib	A:maj/3	215.541	.	voice	4a 4C# 4ee
=88	=88	=88	=88	=88	=88
1IV	D:maj	216.159	newline	voice	1D 1f# 1a
=89	=89	=89	=89	=89	=89
1I	A:maj	218.638	.	voice	1A 1cc# 1ee
=90	=90	=90	=90	=90	=90
1V	E:maj	221.117	.	voice	1E 1g# 1b
=91	=91	=91	=91	=91	=91
*>A2_coda	*>A2_coda	*>A2_coda	*>A2_coda	*>A2_coda	*>A2_coda
1I	A:maj	223.597	newline	piano	1A 1cc# 1ee
=92	=92	=92	=92	=92	=92
1Im7	A:7	226.071	.	piano	1A 1cc# 1ee 1gg#
=93	=93	=93	=93	=93	=93
1I	A:maj6	228.546	.	piano	1A 1cc# 1ee
=94	=94	=94	=94	=94	=94
1I	A:maj	231.021	.	piano	1A 1cc# 1ee
1r;	N	238.446	.	r	1r;
1r;	N	243.513	.	r	1r;
*-	*-	*-	*-	*-	*-
!!!OTL: Just When I Needed You Most
!!!COC: Randy Vanwarmer
!!!BillboardChartDate: 1979/07/21
!!!BillboardPeak: 4
!!!BillboardWeeksOnChart: 20
!!!SampleTargetRank: 38
!!!SampleActualRank: 38
!!!SampleID#: 0149
!!!RDF**harmony: **recip + pitch class of root + harmonic quality
!!!RDF**harte: Chris Harte's syntax, used by MIREX
!!!RDF**phrase: newline = linebreak in original McGill transcription
!!!RDF**timestamp: McGill audio timestamp in seconds
!!!RDF**leadinstrument: original McGill primary instrumentation annotation
!!!RDT: 2017/01/12/
!!!ENC: Nathaniel Condit-Schultz
!!!EST: Awating manual error checking and editing.
